icons/paperclip.svg

<svg xmlns="http://www.w3.org/2000/svg" width="24" height="24" viewBox="0 0 24 24">
  <path d="M12.8461941,2.81801948 C14.6035534,1.06066017 17.4527958,1.06066017 19.2101551,2.81801948 C20.9125969,4.52046132 20.9657983,7.24760984 19.369759,9.01409585 L19.2101551,9.18198052 L10.1945436,18.197592 C9.12060185,19.2715338 7.37939815,19.2715338 6.30545635,18.197592 C5.27626212,17.1683977 5.23337903,15.5263883 6.17680707,14.4461262 L6.30545635,14.3085047 L14.9675144,5.64644661 C15.3580387,5.25592232 15.9912037,5.25592232 16.381728,5.64644661 C16.7422119,6.00693057 16.7699415,6.57416163 16.4649166,6.96645283 L16.381728,7.06066017 L7.71966991,15.7227182 C7.4267767,16.0156115 7.4267767,16.4904852 7.71966991,16.7833784 C7.98593648,17.049645 8.40260016,17.073851 8.69621165,16.8559966 L8.78033009,16.7833784 L17.7959415,7.76776695 C18.7722523,6.79145622 18.7722523,5.20854378 17.7959415,4.23223305 C16.8620791,3.29837061 15.3732162,3.2577679 14.3910929,4.1104249 L14.2604076,4.23223305 L5.24479618,13.2478445 C3.58506794,14.9075727 3.58506794,17.5985239 5.24479618,19.2582521 C6.8509848,20.8644408 9.4229389,20.9162533 11.091435,19.4136898 L11.2552038,19.2582521 L18.5030483,12.0104076 C18.8935726,11.6198833 19.5267376,11.6198833 19.9172619,12.0104076 C20.2777459,12.3708916 20.3054754,12.9381227 20.0004505,13.3304139 L19.9172619,13.4246212 L12.6694174,20.6724657 C10.2286406,23.1132425 6.27135944,23.1132425 3.83058262,20.6724657 C1.45082521,18.2927083 1.39133128,14.471324 3.65210081,12.0194853 L3.83058262,11.8336309 L12.8461941,2.81801948 Z"/>
</svg>

<svg xmlns="http://www.w3.org/2000/svg" viewBox="0 0 24 24">
  <path d="M12.85 2.82a4.5 4.5 0 0 1 6.52 6.2l-.16.16-9.02 9.02a2.75 2.75 0 0 1-4.01-3.75l.13-.14 8.66-8.66a1 1 0 0 1 1.5 1.32l-.09.1-8.66 8.65a.75.75 0 0 0 .98 1.14l.08-.08 9.02-9.01a2.5 2.5 0 0 0-3.4-3.66l-.14.12-9.02 9.02a4.25 4.25 0 0 0 5.85 6.16l.17-.15L18.5 12a1 1 0 0 1 1.5 1.32l-.08.1-7.25 7.24a6.25 6.25 0 0 1-9.02-8.65l.18-.19 9.02-9.01z"/>
</svg>
